X: 22081
T: Knocknagow
R: jig
M: 6/8
K: Adorian
|:EAB ~c3|EGG GAB|EAB ~c3|dcd ecA|
EAB ~c3|EGG GAB|eag edB|1 cAA A3:|2 cAA A2B||
|:Aab ~a3|ede ~g3|Aab aec|def gdB|
Gab ~a3|ede ~g3|e=fe dcB|1 cAA A2B:|2 cAA A2c||
|:ece dcB|cAF ECE|AGA ~c3|dcd Bcd|
dfe dcB|cAF ECE|Ace aed|1 cAA A2c:|2 cAA A2^c/d/||
K:AMix
|:eaf gfg|a2f ecA|dfa ecA|dBB Bcd|ecA fdB|
~a3 ecA|1 df^g aed|cAA A2c/d/:|2 d=f^g aed|=cAA A3||

